usr/share/icons/biglinux-icons-material/16/actions/distribute-vertical-top.svg

<svg xmlns="http://www.w3.org/2000/svg" viewBox="0 0 16 16"><path d="M2 2v1h1v4h6V3h1V2H2zm10 0-2 3h4l-2-3zM4 3h4v3H4V3zm6 4 2 3 2-3h-4zM2 9v1h1v4h6v-4h1V9H2zm2 1h4v3H4v-3z" style="fill:currentColor;fill-opacity:1;stroke:none;color:#dedede"/></svg>

<svg xmlns="http://www.w3.org/2000/svg" viewBox="0 0 16 16">
  <defs id="defs3051">
    <style type="text/css" id="current-color-scheme">
      .ColorScheme-Text {
        color:#363636;
      }
      </style>
  </defs>
 <path style="fill:currentColor;fill-opacity:1;stroke:none" 
     d="M 2 2 L 2 3 L 3 3 L 3 4 L 3 5 L 3 7 L 9 7 L 9 5 L 9 4 L 9 3 L 10 3 L 10 2 L 9 2 L 3 2 L 2 2 z M 12 2 L 10 5 L 14 5 L 12 2 z M 4 3 L 8 3 L 8 6 L 4 6 L 4 3 z M 10 7 L 12 10 L 14 7 L 10 7 z M 2 9 L 2 10 L 3 10 L 3 14 L 4 14 L 9 14 L 9 10 L 10 10 L 10 9 L 2 9 z M 4 10 L 8 10 L 8 13 L 4 13 L 4 10 z "
     class="ColorScheme-Text"
     />
</svg>
